packages/manager/public/assets/TF2.svg

<?xml version="1.0" encoding="UTF-8"?>
<svg width="32px" height="39px" viewBox="0 0 32 39" version="1.1" xmlns="http://www.w3.org/2000/svg" xmlns:xlink="http://www.w3.org/1999/xlink">
    <!-- Generator: Sketch 53.2 (72643) - https://sketchapp.com -->
    <title>TF2</title>
    <desc>Created with Sketch.</desc>
    <g id="TF2" stroke="none" stroke-width="1" fill="none" fill-rule="evenodd">
        <g id="team-fortress" transform="translate(0.000000, 4.000000)" fill="#939598" fill-rule="nonzero">
            <path d="M19.8952646,1.3281337 C26.7855153,3.08412256 31.8752089,9.33259053 31.8752089,16.7665738 C31.8752089,16.9359331 31.8752089,17.1052925 31.8662953,17.2746518 L21.1431755,15.7504178 C20.8311978,14.1370474 19.7793872,12.7821727 18.362117,12.0512535 L19.8952646,1.3281337 Z M11.2222841,14.3420613 C11.9532033,12.9247911 13.308078,11.8729805 14.9214485,11.5610028 L16.4456825,0.846796657 C16.2763231,0.837883008 16.1069638,0.837883008 15.9376045,0.837883008 C8.50362117,0.837883008 2.2551532,5.9275766 0.499164345,12.8178273 L11.2222841,14.3420613 Z M13.5041783,21.4908078 C12.0869081,20.7598886 11.0350975,19.4050139 10.7231198,17.7916435 L0.00891364903,16.2674095 C0,16.4367688 0,16.6061281 0,16.7754875 C0,24.2094708 5.08969359,30.4579387 11.9799443,32.2139276 L13.5041783,21.4908078 L13.5041783,21.4908078 Z M20.6529248,19.2 C19.9220056,20.6172702 18.5671309,21.6690808 16.9537604,21.9810585 L15.4295265,32.7041783 C15.5988858,32.7130919 15.7682451,32.7130919 15.9376045,32.7130919 C23.3715877,32.7130919 29.6200557,27.6233983 31.3760446,20.7331476 L20.6529248,19.2 Z" id="Shape"></path>
        </g>
    </g>
</svg>

<svg enable-background="new 0 0 32 39" viewBox="0 0 32 39" xmlns="http://www.w3.org/2000/svg"><path d="m19.9 1.3c6.9 1.8 12 8 12 15.4v.5l-10.7-1.5c-.3-1.6-1.4-3-2.8-3.7zm-8.7 13c.7-1.4 2.1-2.5 3.7-2.8l1.5-10.7c-.2 0-.3 0-.5 0-7.4 0-13.7 5.1-15.4 12zm2.3 7.2c-1.4-.7-2.5-2.1-2.8-3.7l-10.7-1.5v.5c0 7.4 5.1 13.7 12 15.4zm7.2-2.3c-.7 1.4-2.1 2.5-3.7 2.8l-1.5 10.7h.5c7.4 0 13.7-5.1 15.4-12z" fill="#68696b" transform="translate(0 4)"/></svg>
